svgs/covidsafe.svg

<svg xmlns="http://www.w3.org/2000/svg" viewBox="0 0 192 192"><path d="M88.864 175.829c-4.493-.854-7.227-2.015-9.08-3.855-2.092-2.077-2.131-3.149-.192-5.204.998-1.057 2.435-1.936 4.667-2.857 1.774-.731 3.552-1.625 3.951-1.986 2.08-1.883 4.123-8.573 4.154-13.606.016-2.507.66-3.607 2.459-4.201 1.496-.494 2.76-.133 3.876 1.106.589.653.801 1.657 1.007 4.755.528 7.972 2.685 12.056 7.264 13.759 5.867 2.181 7.961 5.006 5.773 7.787-.953 1.213-4.739 3.104-7.868 3.931-3.3.871-12.282 1.08-16.011.371Zm41.006-20.859-1.923-.678-.1-15.477-.101-15.478h5.392v10.229l3.557-.019c2.942-.016 3.827.125 5.121.818 1.649.882 4.396 3.651 4.396 4.43 0 .252.506-.339 1.124-1.313 1.468-2.315 3.948-3.772 6.869-4.037 5.651-.512 10.08 4.105 10.08 10.509v2.071h-6.729c-4.634 0-6.729.131-6.729.422 0 1.057 1.354 3.1 2.54 3.833 1.595.986 5.145 1.077 7.276.187.786-.328 1.478-.597 1.538-.597.06 0 .375.781.701 1.736.573 1.683.566 1.752-.253 2.277-1.807 1.159-4.839 1.844-7.501 1.694-3.648-.206-6.003-1.454-7.761-4.112l-1.345-2.033-.573.892c-1.041 1.621-2.861 3.113-5.005 4.104-2.8 1.293-7.729 1.546-10.574.542Zm8.656-4.812c2.053-1.397 2.812-2.724 2.993-5.23.312-4.314-1.773-6.699-5.689-6.506l-2.115.104-.107 5.751c-.059 3.164-.021 5.975.084 6.249.324.844 3.397.61 4.834-.368Zm19.812-9.421c-.899-3.624-5.542-4.064-6.965-.659-.3.719-.546 1.4-.546 1.512 0 .113 1.749.205 3.887.205h3.887Zm-36.266 13.918c-.657-.46-.854-.98-.854-2.248 0-2.023.858-2.922 2.79-2.922 1.558 0 2.978 1.376 2.978 2.884 0 .472-.359 1.314-.797 1.871-.929 1.18-2.76 1.365-4.117.415Zm-49.305-4.785c-.423-.423-.769-1.096-.769-1.495 0-1.011 3.728-9.729 4.321-10.106.952-.604 2.547-.334 3.155.535.329.47.599 1.081.599 1.358 0 1.023-3.583 9.154-4.321 9.804-1.004.885-2.038.852-2.985-.096Zm-17.911-1.087c-6.697-2.306-14.398-12.849-11.38-15.581.957-.865 1.914-.802 4.903.323 3.436 1.293 5.457.722 9.714-2.746 2.276-1.854 2.585-1.941 3.821-1.075 1.331.932 1.073 2.292-.864 4.559-1.99 2.329-3.26 4.9-3.272 6.625-.004.664.334 1.962.753 2.884 1.926 4.244.348 6.395-3.675 5.011Zm-12.6-29.61c-.83-.917-.812-2.488.036-3.211.371-.316 2.715-1.409 5.209-2.429l4.536-1.855 1.04.773c2.47 1.837 1.292 3.404-4.29 5.704-4.618 1.903-5.593 2.055-6.531 1.018Zm-21.403-6.314c-1.603-1.093-3.238-4.26-4.121-7.979-1.065-4.492-.947-14.54.219-18.65 2.731-9.623 7.9-10.629 11.165-2.172.62 1.606 1.649 3.469 2.286 4.138 2.268 2.383 7.136 3.994 12.07 3.994 2.578 0 4.667.74 5.269 1.865.694 1.297.479 3-.531 4.2-.885 1.052-1.182 1.142-4.545 1.379-6.514.458-10.954 2.144-12.97 4.927-.632.873-1.15 1.778-1.15 2.011-.001 1.048-2.318 5.171-3.436 6.111-1.506 1.268-2.589 1.312-4.256.176Zm145.983.068c-1.255-.987-2.645-3.378-3.492-6.004-1.415-4.392-5.831-6.642-14.31-7.294-4.128-.317-5.304-1.105-5.304-3.553 0-1.2.248-1.826 1.033-2.611.94-.94 1.384-1.055 4.99-1.294 4.424-.294 6.566-.787 9.188-2.116 2.349-1.19 3.502-2.628 4.772-5.953 1.353-3.541 3.372-5.76 5.223-5.742 6.688.065 9.615 21.198 4.371 31.548-1.761 3.474-4.354 4.684-6.471 3.019Zm-83.014-8.509c-8.023-8.072-8.236-8.443-5.96-10.389 2.255-1.927 3.216-1.596 7.492 2.583 2.055 2.01 3.907 3.653 4.114 3.653.208 0 1.038.645 1.844 1.432l1.466 1.432 10.665-10.661c5.866-5.863 10.968-10.66 11.336-10.66.369 0 .671-.26.671-.577 0-.406.41-.577 1.384-.577 1.953 0 3.999 2.046 3.999 3.999 0 .762-.189 1.385-.42 1.385-.231 0-6.244 5.795-13.362 12.879-12.864 12.801-12.952 12.878-14.481 12.816-1.459-.059-1.908-.435-8.748-7.315ZM46.618 78.109c-2.22-.943-4.253-2-4.518-2.35-1.149-1.519-.141-3.564 1.758-3.565 1.32-.001 8.45 2.954 9.586 3.973 1.017.912 1.089 1.689.267 2.864-.88 1.256-2.441 1.053-7.093-.922Zm91.533 1.032c-.679-1.268-.467-2.654.503-3.289.495-.325 2.77-1.352 5.054-2.283 4.503-1.836 5.345-1.853 6.327-.129.942 1.655-.091 2.631-4.941 4.666-4.655 1.953-6.32 2.201-6.943 1.035ZM60.077 62.657c-.317-.107-1.355-.878-2.307-1.713-3.494-3.065-6.239-3.87-9.014-2.642-2.904 1.284-4.242 1.406-5.178.47-1.103-1.103-1.01-2.485.36-5.381 2.224-4.702 9.622-10.805 13.097-10.805 2.293 0 2.911 2.292 1.504 5.575-1.388 3.238-.799 5.528 2.443 9.492.983 1.201 1.787 2.509 1.787 2.906 0 1.369-1.467 2.513-2.692 2.098Zm69.43-.93c-.851-1.215-.761-1.651.676-3.278 2.026-2.293 3.009-3.871 3.568-5.728.483-1.605.449-1.935-.47-4.596-1.118-3.239-1.006-4.569.443-5.229 3.038-1.384 11.215 4.567 14.038 10.216 1.467 2.937 1.527 4.97.171 5.858-.917.6-1.105.587-3.365-.238-1.316-.48-3.086-.889-3.932-.908-1.865-.042-4.379 1.195-6.624 3.261-1.916 1.763-3.556 1.997-4.505.642Zm-53.382-8.278c-.699-.776-4.127-8.982-4.127-9.879 0-.898 1.415-2.138 2.439-2.138.496 0 1.171.303 1.5.673.694.782 4.136 9.008 4.136 9.886 0 .892-1.419 2.131-2.44 2.131-.496 0-1.175-.303-1.508-.673Zm36.5-.031c-.35-.386-.636-1.14-.636-1.673 0-1.301 3.326-9.226 4.127-9.832 1.455-1.103 3.564-.047 3.564 1.783 0 1.232-3.383 9.373-4.132 9.945-.904.69-2.185.592-2.923-.223ZM93.45 47.013c-.841-.84-.986-1.406-1.209-4.71-.541-8.037-2.708-12.315-7.066-13.945-6.048-2.263-8.09-4.686-6.327-7.511.864-1.385 4.346-3.322 7.57-4.209 3.425-.943 12.259-1.201 16.342-.477 8.236 1.46 12.469 4.963 10.106 8.362-1.07 1.539-2.064 2.211-4.915 3.324-1.48.577-3.113 1.368-3.627 1.757-2.494 1.882-4.204 6.153-4.504 11.251-.245 4.149-.687 5.764-1.789 6.536-1.305.914-3.468.736-4.581-.378Z"/></svg>

<svg
    xmlns="http://www.w3.org/2000/svg"
    viewBox="0 0 192 192"
    id="vector">
    <g id="group">
        <path
            id="path_6"
            d="M 88.864 175.829 C 84.371 174.975 81.637 173.814 79.784 171.974 C 77.692 169.897 77.653 168.825 79.592 166.77 C 80.59 165.713 82.027 164.834 84.259 163.913 C 86.033 163.182 87.811 162.288 88.21 161.927 C 90.29 160.044 92.333 153.354 92.364 148.321 C 92.38 145.814 93.024 144.714 94.823 144.12 C 96.319 143.626 97.583 143.987 98.699 145.226 C 99.288 145.879 99.5 146.883 99.706 149.981 C 100.234 157.953 102.391 162.037 106.97 163.74 C 112.837 165.921 114.931 168.746 112.743 171.527 C 111.79 172.74 108.004 174.631 104.875 175.458 C 101.575 176.329 92.593 176.538 88.864 175.829 Z M 129.87 154.97 L 127.947 154.292 L 127.847 138.815 L 127.746 123.337 L 133.138 123.337 L 133.138 133.566 L 136.695 133.547 C 139.637 133.531 140.522 133.672 141.816 134.365 C 143.465 135.247 146.212 138.016 146.212 138.795 C 146.212 139.047 146.718 138.456 147.336 137.482 C 148.804 135.167 151.284 133.71 154.205 133.445 C 159.856 132.933 164.285 137.55 164.285 143.954 L 164.285 146.025 L 157.556 146.025 C 152.922 146.025 150.827 146.156 150.827 146.447 C 150.827 147.504 152.181 149.547 153.367 150.28 C 154.962 151.266 158.512 151.357 160.643 150.467 C 161.429 150.139 162.121 149.87 162.181 149.87 C 162.241 149.87 162.556 150.651 162.882 151.606 C 163.455 153.289 163.448 153.358 162.629 153.883 C 160.822 155.042 157.79 155.727 155.128 155.577 C 151.48 155.371 149.125 154.123 147.367 151.465 L 146.022 149.432 L 145.449 150.324 C 144.408 151.945 142.588 153.437 140.444 154.428 C 137.644 155.721 132.715 155.974 129.87 154.97 Z M 138.526 150.158 C 140.579 148.761 141.338 147.434 141.519 144.928 C 141.831 140.614 139.746 138.229 135.83 138.422 L 133.715 138.526 L 133.608 144.277 C 133.549 147.441 133.587 150.252 133.692 150.526 C 134.016 151.37 137.089 151.136 138.526 150.158 Z M 158.338 140.737 C 157.439 137.113 152.796 136.673 151.373 140.078 C 151.073 140.797 150.827 141.478 150.827 141.59 C 150.827 141.703 152.576 141.795 154.714 141.795 L 158.601 141.795 Z M 122.072 154.655 C 121.415 154.195 121.218 153.675 121.218 152.407 C 121.218 150.384 122.076 149.485 124.008 149.485 C 125.566 149.485 126.986 150.861 126.986 152.369 C 126.986 152.841 126.627 153.683 126.189 154.24 C 125.26 155.42 123.429 155.605 122.072 154.655 Z M 72.767 149.87 C 72.344 149.447 71.998 148.774 71.998 148.375 C 71.998 147.364 75.726 138.646 76.319 138.269 C 77.271 137.665 78.866 137.935 79.474 138.804 C 79.803 139.274 80.073 139.885 80.073 140.162 C 80.073 141.185 76.49 149.316 75.752 149.966 C 74.748 150.851 73.714 150.818 72.767 149.87 Z M 54.856 148.783 C 48.159 146.477 40.458 135.934 43.476 133.202 C 44.433 132.337 45.39 132.4 48.379 133.525 C 51.815 134.818 53.836 134.247 58.093 130.779 C 60.369 128.925 60.678 128.838 61.914 129.704 C 63.245 130.636 62.987 131.996 61.05 134.263 C 59.06 136.592 57.79 139.163 57.778 140.888 C 57.774 141.552 58.112 142.85 58.531 143.772 C 60.457 148.016 58.879 150.167 54.856 148.783 Z M 42.256 119.173 C 41.426 118.256 41.444 116.685 42.292 115.962 C 42.663 115.646 45.007 114.553 47.501 113.533 L 52.037 111.678 L 53.077 112.451 C 55.547 114.288 54.369 115.855 48.787 118.155 C 44.169 120.058 43.194 120.21 42.256 119.173 Z M 20.853 112.859 C 19.25 111.766 17.615 108.599 16.732 104.88 C 15.667 100.388 15.785 90.34 16.951 86.23 C 19.682 76.607 24.851 75.601 28.116 84.058 C 28.736 85.664 29.765 87.527 30.402 88.196 C 32.67 90.579 37.538 92.19 42.472 92.19 C 45.05 92.19 47.139 92.93 47.741 94.055 C 48.435 95.352 48.22 97.055 47.21 98.255 C 46.325 99.307 46.028 99.397 42.665 99.634 C 36.151 100.092 31.711 101.778 29.695 104.561 C 29.063 105.434 28.545 106.339 28.545 106.572 C 28.544 107.62 26.227 111.743 25.109 112.683 C 23.603 113.951 22.52 113.995 20.853 112.859 Z M 166.836 112.927 C 165.581 111.94 164.191 109.549 163.344 106.923 C 161.929 102.531 157.513 100.281 149.034 99.629 C 144.906 99.312 143.73 98.524 143.73 96.076 C 143.73 94.876 143.978 94.25 144.763 93.465 C 145.703 92.525 146.147 92.41 149.753 92.171 C 154.177 91.877 156.319 91.384 158.941 90.055 C 161.29 88.865 162.443 87.427 163.713 84.102 C 165.066 80.561 167.085 78.342 168.936 78.36 C 175.624 78.425 178.551 99.558 173.307 109.908 C 171.546 113.382 168.953 114.592 166.836 112.927 Z M 83.822 104.418 C 75.799 96.346 75.586 95.975 77.862 94.029 C 80.117 92.102 81.078 92.433 85.354 96.612 C 87.409 98.622 89.261 100.265 89.468 100.265 C 89.676 100.265 90.506 100.91 91.312 101.697 L 92.778 103.129 L 103.443 92.468 C 109.309 86.605 114.411 81.808 114.779 81.808 C 115.148 81.808 115.45 81.548 115.45 81.231 C 115.45 80.825 115.86 80.654 116.834 80.654 C 118.787 80.654 120.833 82.7 120.833 84.653 C 120.833 85.415 120.644 86.038 120.413 86.038 C 120.182 86.038 114.169 91.833 107.051 98.917 C 94.187 111.718 94.099 111.795 92.57 111.733 C 91.111 111.674 90.662 111.298 83.822 104.418 Z M 46.618 78.109 C 44.398 77.166 42.365 76.109 42.1 75.759 C 40.951 74.24 41.959 72.195 43.858 72.194 C 45.178 72.193 52.308 75.148 53.444 76.167 C 54.461 77.079 54.533 77.856 53.711 79.031 C 52.831 80.287 51.27 80.084 46.618 78.109 Z M 138.151 79.141 C 137.472 77.873 137.684 76.487 138.654 75.852 C 139.149 75.527 141.424 74.5 143.708 73.569 C 148.211 71.733 149.053 71.716 150.035 73.44 C 150.977 75.095 149.944 76.071 145.094 78.106 C 140.439 80.059 138.774 80.307 138.151 79.141 Z M 60.077 62.657 C 59.76 62.55 58.722 61.779 57.77 60.944 C 54.276 57.879 51.531 57.074 48.756 58.302 C 45.852 59.586 44.514 59.708 43.578 58.772 C 42.475 57.669 42.568 56.287 43.938 53.391 C 46.162 48.689 53.56 42.586 57.035 42.586 C 59.328 42.586 59.946 44.878 58.539 48.161 C 57.151 51.399 57.74 53.689 60.982 57.653 C 61.965 58.854 62.769 60.162 62.769 60.559 C 62.769 61.928 61.302 63.072 60.077 62.657 Z M 129.507 61.727 C 128.656 60.512 128.746 60.076 130.183 58.449 C 132.209 56.156 133.192 54.578 133.751 52.721 C 134.234 51.116 134.2 50.786 133.281 48.125 C 132.163 44.886 132.275 43.556 133.724 42.896 C 136.762 41.512 144.939 47.463 147.762 53.112 C 149.229 56.049 149.289 58.082 147.933 58.97 C 147.016 59.57 146.828 59.557 144.568 58.732 C 143.252 58.252 141.482 57.843 140.636 57.824 C 138.771 57.782 136.257 59.019 134.012 61.085 C 132.096 62.848 130.456 63.082 129.507 61.727 Z M 76.125 53.449 C 75.426 52.673 71.998 44.467 71.998 43.57 C 71.998 42.672 73.413 41.432 74.437 41.432 C 74.933 41.432 75.608 41.735 75.937 42.105 C 76.631 42.887 80.073 51.113 80.073 51.991 C 80.073 52.883 78.654 54.122 77.633 54.122 C 77.137 54.122 76.458 53.819 76.125 53.449 Z M 112.625 53.418 C 112.275 53.032 111.989 52.278 111.989 51.745 C 111.989 50.444 115.315 42.519 116.116 41.913 C 117.571 40.81 119.68 41.866 119.68 43.696 C 119.68 44.928 116.297 53.069 115.548 53.641 C 114.644 54.331 113.363 54.233 112.625 53.418 Z M 93.45 47.013 C 92.609 46.173 92.464 45.607 92.241 42.303 C 91.7 34.266 89.533 29.988 85.175 28.358 C 79.127 26.095 77.085 23.672 78.848 20.847 C 79.712 19.462 83.194 17.525 86.418 16.638 C 89.843 15.695 98.677 15.437 102.76 16.161 C 110.996 17.621 115.229 21.124 112.866 24.523 C 111.796 26.062 110.802 26.734 107.951 27.847 C 106.471 28.424 104.838 29.215 104.324 29.604 C 101.83 31.486 100.12 35.757 99.82 40.855 C 99.575 45.004 99.133 46.619 98.031 47.391 C 96.726 48.305 94.563 48.127 93.45 47.013 Z"
            fill="#000000"
            stroke-width="12"/>
    </g>
</svg>
